X:484
T:Dermot Grogan's
T:Spot the Wallop
R:jig
Z:id:hn-jig-484
M:6/8
L:1/8
K:Edor
~e3 dBA | ~g3 afd | e/f/ge dBA | BAB GED |
~e3 dBA | ~g3 afd | e/f/ge dBA | Bed e2d :|
|: egb egb | egb bge | dfa dfa | dfa agf |
gfg ~a3 | bag agf | gfe dBA | Bed e2d :|
